X:1
T:Fuga Contrapuntus alla Decima: BACH
T:Fuga Contrapuntus alla Decima: BACH
T:BWV Anh. 109
T:Johann Sebastian Bach?
C:Johann Sebastian Bach?
%%score 1 2 3
L:1/8
M:4/4
K:Bb
V:1 treble 
V:2 treble 
V:3 treble 
V:1
 z8 | z8 | z8 | z8 | z8 | B8 | A4 c4 | =B4 ^c4 | d3 e d3 g | ^f3 a g3 f | g=fed edc_B | %11
 AG^FG GF z2 | z/ A/B/A/ G/A/G/F/ =E/G/B/A/ B/G/^F/E/ | ^F/A/c/B/ c/B/A/G/ F/^G/A/=B/ c/A/G/F/ | %14
 ^G/=B/d/^c/ d/=c/_B/A/ =G2- MG3/2^F/4G/4 | ^F3 B A3 G | c3 B/A/ B2 A2 | G3 G _A=A_Bc | %18
 _d3 d c f2 =e | f2 z2 c2 z2 | z4 z .=e.e.e | z .f.f.f z .^f.f.f | z .g.g.g z ._g.g.g | %23
 =gf b2- b_a e2- | e=d =g2- g^f c2- | cB e2- e d2 ^c | d2 z2 ^f2 z2 | B8 | A4 c4 | =B4 ^c4 | %30
 d3 d c4 | B4 z BAG | G^F F2 z A d2 | G=FED z .^C.C.C | z .D.D.D z .^D.D.D | z .=E.E.E z ._E.E.E | %36
 ED G2- G^F B2- | BA z2 z4 | B8 | A4 c4 | =B4 ^c4 | d3 e d3 g | ^f3 a g3 f | g=fed edc_B | %44
 AG^FG GF z2 | z/ A/B/A/ G/A/G/F/ =E/G/B/A/ B/G/^F/E/ | ^F/A/c/B/ c/B/A/G/ F/^G/A/=B/ c/A/G/F/ | %47
 ^G/=B/d/^c/ d/=c/_B/A/ =G2- MG3/2^F/4G/4 | ^F3 B A3 G | c3 B/A/ B2 A2 | G2 G6 | G2 z2 z4 |] %52
V:2
 z4 z .^C.C.C | z .D.D.D z .^D.D.D | z .=E.E.E z .E.E.E | ED G2- G^F B2- | BA C2- CB, G2- | %5
 G/F/=E/F/ G2 z .E.E.E | z .F.F.F z .^F.F.F | z .G.G.G z ._G.G.G | =GF B2- BA d2- | dc E2- EDBA | %10
 G4- GFED | C2 ^C2 B,D z2 | B,8 | A,4 C4 | =B,4 ^C4 | D3 D =C3 D | =E2 ^F2- FG- G/E/F/C/ | %17
 B,3 =B, C2 _DE | F3 F =EF B2 | =A2 z2 C2 z2 | z/ C/_D/C/ B,/C/B,/_A,/ =G,/F,/G,/A,/ B,/G,/F,/G,/ | %21
 _A,/B,/C/B,/ A,/G,/F,/G,/ =A,/G,/A,/B,/ C/A,/G,/A,/ | %22
 =B,/C/D/C/ B,/A,/G,/A,/ _B,/A,/B,/D/ C/B,/A,/G,/ | A,/C/B,/C/ _D2- DC _G2- | GF B2- BA/=G/ A^F | %25
 G3 A B^F G2 | ^F2 z2 A2 z2 | G=F_ED z .^C.C.C | z .D.D.D z .^D.D.D | z .=E.E.E z ._E.E.E | %30
 ED B3 A E2- | ED G2 z z/ G^F=E/ | _ED D2 z D ^F2 | %33
 z/ A,/B,/A,/ G,/A,/G,/F,/ =E,/G,/B,/A,/ B,/G,/^F,/E,/ | %34
 ^F,/A,/C/B,/ C/B,/A,/G,/ F,/^G,/A,/=B,/ C/A,/=G,/F,/ | %35
 ^G,/=B,/D/^C/ D/=C/B,/A,/ =G,2 MG,3/2^F,/4G,/4 | ^F,2 z2 z4 | z2 C2- CB, G2- | %38
 G/F/=E/F/ G2 z .E.E.E | z .F.F.F z .^F.F.F | z .G.G.G z ._G.G.G | =GF B2- BA d2 | ^fc E2- EDBA | %43
 G4- GFED | C2 ^C2 B,D z2 | B,8 | A,4 C4 | =B,4 ^C4 | D3 D =C3 D | =E2 ^F2- FG- G/E/F/C/ | %50
 B,3/2C/4D/4 [CE-]2 [CE]C/-[CE]/ [CD-]/[B,-D]/[B,C-]/[A,C]/ | [=B,D]2 z2 z4 |] %52
V:3
 B,,8 | A,,4 C,4 | =B,,4 ^C,4 | D,3 E, D,3 G, | ^F,3 A, G,2- G,/=F,/=E,/D,/ | %5
 =E,/F,/G,/F,/ E,/F,/E,/D,/ ^C,/E,/G,/F,/ G,/E,/D,/C,/ | %6
 D,/F,/A,/G,/ A,/G,/F,/=E,/ ^D,/^F,/A,/G,/ A,/F,/E,/D,/ | %7
 =E,/G,/=B,/A,/ B,/A,/G,/=F,/ _E,2- ME,3/2D,/4E,/4 | D,3 C, B,,F, B,2- | B,A, C2- CB,CD | %10
 EDC=B, C3 D, | E,4 D,2 D,,/D,/=E,/^F,/ | G,=F,_E,D, z .^C,.C,.C, | z .D,.D,.D, z .^D,.D,.D, | %14
 z .=E,.E,.E, z ._E,.E,.E, | E,D, G,2- G,^F, B,2- | B,A,/G,/ A,D, G,/D,/_E,/B,,/ C,D, | %17
 G,,D, G,2- G,F,- F,/E,/_D,/C,/ | B,,F, B,2- B,_A, T_G,3/2F,/4G,/4 | %19
 F,/=A,/C/B,/ C/A,/E,/D,/ E,/A,/C/B,/ A,/_G,/F,/E,/ | _D,4- D,4 | C,4 E,4 | D,4 =E,4 | %23
 F,3 G, _A,3 =A, | B,3 C D3 D, | E,D,C,F, B,,C,/D,/ ME,3/2D,/4E,/4 | %26
 D,/^F,/A,/G,/ A,/B,/C/D/ E/D/^C/D/ =E/^F/G/A/ | %27
 z/ A,/B,/A,/ G,/A,/G,/=F,/ =E,/G,/B,/A,/ B,/G,/^F,/E,/ | %28
 ^F,/A,/=C/B,/ C/B,/A,/G,/ F,/^G,/A,/=B,/ C/A,/=G,/F,/ | %29
 ^G,/=B,/D/=C/ D/=C/_B,/A,/ =G,2 MG,3/2^F,/4G,/4 | ^F,3 G, A,,3 F, | G,2- G,/B,/E,/G,/ ^C,4 | %32
 D,2- D,/A,/^F,/A,/ C,2- C,/E,/A,,/C,/ | B,,8 | A,,4 C,4 | =B,,4 ^C,4 | D,3 E, D,3 G, | %37
 ^F,3 A, (E,2 G,/)=F,/=E,/D,/ | =E,/F,/G,/F,/ E,/F,/E,/D,/ ^C,/E,/G,/F,/ G,/E,/D,/C,/ | %39
 D,/F,/A,/G,/ A,/G,/F,/=E,/ ^D,/^F,/A,/G,/ A,/F,/E,/D,/ | %40
 =E,/G,/=B,/A,/ B,/A,/G,/F,/ _E,2- ME,3/2D,/4E,/4 | D,3 C, B,,F, B,2- | B,A, C2- CB,CD | %43
 EDC=B, C3 D, | E,4 D,2 D,,/D,/=E,/^F,/ | G,=F,_E,D, z .^C,.C,.C, | z .D,.D,.D, z .^D,.D,.D, | %47
 z .=E,.E,.E, z ._E,.E,.E, | E,D, G,2- G,^F, B,2- | B,A,/G,/ F,D, G,/D,/_E,/B,,/ C,D, | %50
 G,,2 C,,2 G,,4- | G,,2 z2 z4 |] %52

